**kern	**kern	**dynam
*part1	*part1	*part1
*staff2	*staff1	*
*I"Piano	*	*
*clefF4	*clefG2	*
*k[f#c#g#]	*k[f#c#g#]	*
=1	=1	=1
!	!	!LO:DY:a
!	!	!LO:DY:a
2AAA#X 2AA#X	[2.A#X [2.c# [2.e [2.gn	sf >
4AAA# 4AA#	.	]]
=	=	=
2AAA#X 2AA#X	2A#] 2c#] 2e] 2g]	mp
4BBB 4BB	4B 4d 4f#	.
=	=	=
2CC# 2C#	2.An 2.c# 2.f#	p
4CC# 4C#	.	.
=	=	=
*	*^	*
2CC# 2C#	2.e#X	2G# 2c#	.
4CC# 4C#	.	4B	.
*	*v	*v	*
=	=	=
2DD 2D	2.F# 2.A 2.f#	.
4DD 4D	.	.
=	=	=
!	!LO:TX:b:i:t=cresc.	!
2DD 2D	2A 2cn 2f#	.
4DD 4D	4A 4c 4f#	.
=	=	=
2DD 2D	2.B-X 2.c#X [2.gn	.
4DD 4D	.	.
=	=	=
2DD 2D	2Bn 2d 2g]	.
4DD 4D	4A 4B#X 4f#	mp
=	=	=
2CC# 2C#	2.A 2.c# 2.f#	p
4CC# 4C#	.	.
=	=	=
2CC# 2C#	2.G# 2.c# 2.e#X	.
4CC# 4C#	.	.
=	=	=
*-	*-	*-
!!!system-decoration: {(s1,s2)}
